cursors/Breeze/src/svg/size_ver.svg

<svg id="svg11024" height="32" width="32" xmlns="http://www.w3.org/2000/svg" xmlns:xlink="http://www.w3.org/1999/xlink">
  <filter id="filter7078" color-interpolation-filters="sRGB">
    <feGaussianBlur id="feGaussianBlur7080" stdDeviation=".657"/>
  </filter>
  <path id="path51790" d="m16.5 2.936a1 1 0 0 0 -.867.504l-3.494 6.053a1 1 0 0 0 .861 1.507h7a1 1 0 0 0 .861-1.508l-3.494-6.052a1 1 0 0 0 -.867-.504m0 10.064a3.515 3.515 0 0 0 -3.5 3.5c0 1.922 1.579 3.5 3.5 3.5s3.5-1.578 3.5-3.5c0-1.92-1.579-3.5-3.5-3.5m-3.5 9a1 1 0 0 0 -.861 1.508l3.494 6.053a1 1 0 0 0 1.734 0l3.494-6.053a1 1 0 0 0 -.861-1.508z" filter="url(#filter7078)" opacity=".2"/>
  <path id="path4591-9-8-8-7-2-0-1-7-2-6-0-7-4-4" d="m16.5 1.936a1 1 0 0 0 -.867.503l-3.494 6.053a1 1 0 0 0 .861 1.508h7a1 1 0 0 0 .861-1.508l-3.494-6.052a1 1 0 0 0 -.867-.503m0 10.063a3.515 3.515 0 0 0 -3.5 3.5c0 1.921 1.579 3.5 3.5 3.5s3.5-1.579 3.5-3.5-1.579-3.5-3.5-3.5m-3.5 9a1 1 0 0 0 -.861 1.508l3.494 6.053a1 1 0 0 0 1.734 0l3.494-6.053a1 1 0 0 0 -.861-1.508z" fill="#fff"/>
  <path id="path38660" d="m16.5 2.936-3.5 6.064h7zm-3.5 19.064 3.5 6.064 3.5-6.064z" fill="#0d0d0d"/>
  <g transform="scale(-1 1)">
    <circle id="path4169-06-1-5-7-9-6-03-6-4-8-4-0" cx="-16.5" cy="15.5" fill="#46a7ac" r="2.5"/>
    <path id="hotspot" d="m-17.5 15.5h1v1h-1z" display="none" fill="#333" stroke-width="1.07568"/>
  </g>
</svg>

<svg xmlns="http://www.w3.org/2000/svg" xmlns:xlink="http://www.w3.org/1999/xlink" xml:space="preserve" id="svg11024" width="32" height="32">
    <defs>
        <filter id="filter7078" color-interpolation-filters="sRGB">
            <feGaussianBlur id="feGaussianBlur7080" stdDeviation=".657"/>
        </filter>
    </defs>
    <path id="path51790" d="M16.5 2.936a1 1 0 0 0-.867.504l-3.494 6.053A1 1 0 0 0 13 11h7a1 1 0 0 0 .861-1.508L17.367 3.44a1 1 0 0 0-.867-.504M16.5 13a3.515 3.515 0 0 0-3.5 3.5c0 1.922 1.579 3.5 3.5 3.5s3.5-1.578 3.5-3.5c0-1.92-1.579-3.5-3.5-3.5M13 22a1 1 0 0 0-.861 1.508l3.494 6.053a1 1 0 0 0 1.734 0l3.494-6.053A1 1 0 0 0 20 22Z" style="color:#000;font-style:normal;font-variant:normal;font-weight:400;font-stretch:normal;font-size:medium;line-height:normal;font-family:Sans;-inkscape-font-specification:Sans;text-indent:0;text-align:start;text-decoration:none;text-decoration-line:none;letter-spacing:normal;word-spacing:normal;text-transform:none;writing-mode:lr-tb;direction:ltr;baseline-shift:baseline;text-anchor:start;display:inline;overflow:visible;visibility:visible;opacity:.2;fill:#000;fill-opacity:1;fill-rule:nonzero;stroke:none;stroke-width:2;marker:none;filter:url(#filter7078);enable-background:accumulate"/>
    <path id="path4591-9-8-8-7-2-0-1-7-2-6-0-7-4-4" d="M16.5 1.936a1 1 0 0 0-.867.503l-3.494 6.053A1 1 0 0 0 13 10h7a1 1 0 0 0 .861-1.508L17.367 2.44a1 1 0 0 0-.867-.503M16.5 12a3.515 3.515 0 0 0-3.5 3.5c0 1.921 1.579 3.5 3.5 3.5s3.5-1.579 3.5-3.5-1.579-3.5-3.5-3.5M13 21a1 1 0 0 0-.861 1.508l3.494 6.053a1 1 0 0 0 1.734 0l3.494-6.053A1 1 0 0 0 20 21Z" style="color:#000;font-style:normal;font-variant:normal;font-weight:400;font-stretch:normal;font-size:medium;line-height:normal;font-family:Sans;-inkscape-font-specification:Sans;text-indent:0;text-align:start;text-decoration:none;text-decoration-line:none;letter-spacing:normal;word-spacing:normal;text-transform:none;writing-mode:lr-tb;direction:ltr;baseline-shift:baseline;text-anchor:start;display:inline;overflow:visible;visibility:visible;fill:#fff;fill-opacity:1;fill-rule:nonzero;stroke:none;stroke-width:2;marker:none;enable-background:accumulate"/>
    <path id="path38660" d="M16.5 2.936 13 9h7zM13 22l3.5 6.064L20 22Z" style="fill:#0d0d0d;fill-opacity:1"/>
    <circle id="path4169-06-1-5-7-9-6-03-6-4-8-4-0" cx="-16.5" cy="15.5" r="2.5" style="fill:#46a7ac;fill-opacity:1;stroke:none;stroke-width:1.25" transform="scale(-1 1)"/>
    <path id="hotspot" d="M-17.5 15.5h1v1h-1z" style="display:none;fill:#333;stroke-width:1.07568" transform="scale(-1 1)"/>
</svg>
